; generated by PrusaSlicer 2.7.1+win64 on 2024-01-09 at 02:52:50 UTC

; 

; external perimeters extrusion width = 0.45mm
; perimeters extrusion width = 0.45mm
; infill extrusion width = 0.45mm
; solid infill extrusion width = 0.45mm
; top infill extrusion width = 0.40mm
; support material extrusion width = 0.35mm
; first layer extrusion width = 0.42mm

M104 S215 ; set temperature
;TYPE:Custom
M190 S60 ; Wait for the bed to reach printing temperature
G91 ; relative moves
G1 Z1 F900 ; raise tool 1mm
G90 ; absolute moves
T-1 ; Make sure nothing is parked on the carriage
G0 X150 Y150 F10000; Move to the center of the print area
M558 F500  ; Set the probing speed
G30 ; Do a single probe
M558 F50 ; Set a slower probing speed
G30 ; Do a second probe
T0
M109 S215 ; set temperature and wait for it to be reached
G21 ; set units to millimeters
G90 ; use absolute coordinates
M83 ; use relative distances for extrusion
; Filament gcode
M107
;LAYER_CHANGE
;Z:0.2
;HEIGHT:0.2
G1 Z.2 F7800
G92 E0
G1 E-1 F7980
G1 X143.409 Y143.33 F7800
G1 Z.2
G1 E1.05 F7980
;TYPE:Skirt/Brim
;WIDTH:0.42
G1 F600
G1 X144.846 Y142.166 E.05798
G1 X146.436 Y141.327 E.05637
G1 X148.265 Y140.785 E.05981
G1 X150.056 Y140.623 E.05638
G1 X151.844 Y140.806 E.05635
G1 X153.613 Y141.347 E.058
G1 X155.29 Y142.257 E.05982
G1 X156.67 Y143.409 E.05636
G1 X157.805 Y144.803 E.05636
G1 X158.673 Y146.436 E.05799
G1 X159.194 Y148.156 E.05635
G1 X159.377 Y150.056 E.05985
G1 X159.184 Y151.895 E.05798
G1 X158.653 Y153.613 E.05638
G1 X157.743 Y155.29 E.05982
G1 X156.591 Y156.67 E.05636
G1 X155.197 Y157.805 E.05636
G1 X153.564 Y158.673 E.05799
G1 X151.844 Y159.194 E.05635
G1 X149.944 Y159.377 E.05985
G1 X148.105 Y159.184 E.05798
G1 X146.387 Y158.653 E.05638
G1 X144.71 Y157.743 E.05982
G1 X143.33 Y156.591 E.05636
G1 X142.195 Y155.197 E.05636
G1 X141.327 Y153.564 E.05799
G1 X140.806 Y151.844 E.05635
G1 X140.623 Y149.944 E.05985
G1 X140.806 Y148.156 E.05635
G1 X141.347 Y146.387 E.058
G1 X142.257 Y144.71 E.05982
G1 X143.371 Y143.376 E.05449
G1 E-1 F7980
G1 X143.371 Y143.376 Z.4 F7800
G1 X152.275 Y151.536
G1 Z.2
G1 E1.05 F7980
;TYPE:External perimeter
;WIDTH:0.50196
G1 F600
G1 X151.942 Y151.944 E.0201
G1 X151.538 Y152.278 E.02001
G1 X151.028 Y152.548 E.02203
G1 X150.524 Y152.697 E.02006
G1 X150 Y152.748 E.0201
G1 X149.476 Y152.697 E.0201
;WIDTH:0.502252
G1 X148.971 Y152.548 E.02011
G1 X148.485 Y152.292 E.02098
;WIDTH:0.501926
G1 X148.056 Y151.942 E.02113
;WIDTH:0.502148
G1 X147.722 Y151.537 E.02005
G1 X147.452 Y151.028 E.022
;WIDTH:0.501954
G1 X147.303 Y150.524 E.02006
G1 X147.252 Y150 E.02009
G1 X147.303 Y149.476 E.02009
;WIDTH:0.502146
G1 X147.452 Y148.971 E.02011
G1 X147.723 Y148.463 E.02199
;WIDTH:0.501962
G1 X148.057 Y148.057 E.02007
G1 X148.463 Y147.722 E.02009
G1 X148.972 Y147.452 E.02199
G1 X149.476 Y147.303 E.02006
G1 X150 Y147.252 E.0201
G1 X150.572 Y147.312 E.02195
G1 X151.074 Y147.471 E.0201
G1 X151.537 Y147.722 E.0201
;WIDTH:0.502272
G1 X151.943 Y148.057 E.0201
G1 X152.291 Y148.482 E.02098
;WIDTH:0.497756
G1 X152.538 Y148.946 E.01988
;WIDTH:0.501938
G1 X152.698 Y149.477 E.02117
;WIDTH:0.50196
G1 X152.748 Y150 E.02005
G1 X152.697 Y150.524 E.0201
;WIDTH:0.502258
G1 X152.548 Y151.029 E.02011
G1 X152.308 Y151.486 E.01972
G1 X152.059 Y151.799 F7800
M106 S127.5
;LAYER_CHANGE
;Z:0.4
;HEIGHT:0.2
G1 Z.4 F7800
G92 E0
M104 S210 ; set temperature
G1 X152.283 Y151.527
;WIDTH:0.501942
G1 F600
G1 X151.942 Y151.944 E.02056
G1 X151.537 Y152.278 E.02004
G1 X151.075 Y152.529 E.02007
G1 X150.523 Y152.698 E.02203
G1 X150 Y152.748 E.02005
G1 X149.476 Y152.697 E.02009
G1 X148.971 Y152.548 E.0201
G1 X148.504 Y152.305 E.02009
G1 X148.056 Y151.942 E.02201
G1 X147.722 Y151.537 E.02004
;WIDTH:0.505036
G1 X147.453 Y151.028 E.02212
G1 X147.303 Y150.524 E.02021
;WIDTH:0.502016
G1 X147.252 Y150 E.0201
G1 X147.302 Y149.477 E.02006
G1 X147.471 Y148.925 E.02204
G1 X147.722 Y148.463 E.02007
G1 X148.057 Y148.057 E.02009
G1 X148.462 Y147.722 E.02006
G1 X148.972 Y147.452 E.02203
G1 X149.476 Y147.303 E.02006
G1 X150.002 Y147.252 E.02017
G1 X150.572 Y147.312 E.02188
G1 X151.074 Y147.471 E.0201
G1 X151.537 Y147.722 E.0201
G1 X151.943 Y148.057 E.02009
G1 X152.278 Y148.463 E.02009
;WIDTH:0.50118
G1 X152.538 Y148.947 E.02094
;WIDTH:0.50194
G1 X152.698 Y149.477 E.02113
;WIDTH:0.501958
G1 X152.748 Y150 E.02005
;WIDTH:0.502264
G1 X152.697 Y150.524 E.02011
G1 X152.539 Y151.05 E.02098
;WIDTH:0.497772
G1 X152.314 Y151.475 E.01819
G1 X152.066 Y151.79 F7800
M106 S255
;LAYER_CHANGE
;Z:0.6
;HEIGHT:0.2
G1 Z.6 F7800
G92 E0
G1 X152.294 Y151.506
;WIDTH:0.50194
G1 F600
G1 X152.277 Y151.537 E.00135
G1 X151.943 Y151.943 E.02007
G1 X151.537 Y152.278 E.02009
G1 X151.07 Y152.531 E.02027
G1 X150.523 Y152.698 E.02183
G1 X150 Y152.748 E.02005
G1 X149.476 Y152.697 E.02009
G1 X148.967 Y152.547 E.02025
G1 X148.463 Y152.278 E.0218
G1 X148.057 Y151.943 E.02009
G1 X147.722 Y151.537 E.02009
G1 X147.469 Y151.07 E.02027
G1 X147.302 Y150.523 E.02183
;WIDTH:0.50226
G1 X147.252 Y150 E.02007
G1 X147.307 Y149.454 E.02096
;WIDTH:0.497814
G1 X147.46 Y148.95 E.01992
;WIDTH:0.501938
G1 X147.722 Y148.463 E.02111
G1 X148.057 Y148.057 E.02009
;WIDTH:0.50207
G1 X148.463 Y147.723 E.02007
G1 X148.972 Y147.452 E.02202
G1 X149.476 Y147.303 E.02007
G1 X150.004 Y147.252 E.02025
;WIDTH:0.501938
G1 X150.572 Y147.312 E.0218
G1 X151.074 Y147.471 E.0201
G1 X151.537 Y147.722 E.0201
;WIDTH:0.502264
G1 X151.943 Y148.057 E.0201
G1 X152.291 Y148.482 E.02098
;WIDTH:0.497778
G1 X152.538 Y148.946 E.01988
G1 X152.692 Y149.45 E.01993
;WIDTH:0.502264
G1 X152.748 Y150.001 E.02115
G1 X152.693 Y150.546 E.02092
;WIDTH:0.49778
G1 X152.539 Y151.05 E.01993
;WIDTH:0.50194
G1 X152.323 Y151.453 E.01745
G1 X152.081 Y151.772 F7800
;LAYER_CHANGE
;Z:0.8
;HEIGHT:0.2
G1 Z.8 F7800
G92 E0
G1 X152.303 Y151.496
;WIDTH:0.497988
G1 F600
G1 X152.293 Y151.515 E.00081
;WIDTH:0.501944
G1 X151.942 Y151.944 E.02116
G1 X151.537 Y152.278 E.02004
;WIDTH:0.502228
G1 X151.069 Y152.531 E.02032
;WIDTH:0.506
G1 X150.523 Y152.696 E.02196
G1 X150 Y152.748 E.02024
;WIDTH:0.502028
G1 X149.476 Y152.698 E.02009
;WIDTH:0.50098
G1 X148.95 Y152.539 E.02093
;WIDTH:0.497984
G1 X148.485 Y152.293 E.01991
;WIDTH:0.502258
G1 X148.056 Y151.942 E.02117
G1 X147.709 Y151.518 E.02093
;WIDTH:0.49799
G1 X147.462 Y151.054 E.01989
;WIDTH:0.501934
G1 X147.302 Y150.523 E.02117
;WIDTH:0.502272
G1 X147.252 Y150 E.02007
G1 X147.307 Y149.454 E.02096
;WIDTH:0.497984
G1 X147.46 Y148.95 E.01993
;WIDTH:0.501946
G1 X147.722 Y148.463 E.02111
G1 X148.056 Y148.058 E.02004
;WIDTH:0.505992
G1 X148.505 Y147.697 E.02218
G1 X148.971 Y147.452 E.02027
;WIDTH:0.501994
G1 X149.476 Y147.303 E.0201
G1 X150.006 Y147.252 E.02032
G1 X150.572 Y147.312 E.02173
G1 X151.074 Y147.471 E.0201
G1 X151.537 Y147.722 E.0201
G1 X151.943 Y148.057 E.02009
G1 X152.278 Y148.462 E.02006
G1 X152.548 Y148.972 E.02203
G1 X152.697 Y149.476 E.02006
;WIDTH:0.50227
G1 X152.748 Y150 E.02011
G1 X152.693 Y150.546 E.02096
;WIDTH:0.497776
G1 X152.54 Y151.05 E.01992
;WIDTH:0.497988
G1 X152.331 Y151.443 E.01684
G1 X152.089 Y151.761 F7800
;LAYER_CHANGE
;Z:1
;HEIGHT:0.2
G1 Z1 F7800
G92 E0
G1 X152.309 Y151.483
;WIDTH:0.497778
G1 F600
G1 X152.293 Y151.515 E.00135
;WIDTH:0.501942
G1 X151.942 Y151.944 E.02116
G1 X151.537 Y152.278 E.02004
G1 X151.067 Y152.532 E.02039
G1 X150.523 Y152.698 E.02171
;WIDTH:0.502266
G1 X150 Y152.748 E.02007
G1 X149.454 Y152.693 E.02096
;WIDTH:0.498168
G1 X148.95 Y152.54 E.01994
;WIDTH:0.50194
G1 X148.463 Y152.278 E.02111
;WIDTH:0.50204
G1 X148.057 Y151.943 E.02009
G1 X147.722 Y151.537 E.02009
;WIDTH:0.500844
G1 X147.462 Y151.053 E.02092
;WIDTH:0.501938
G1 X147.302 Y150.523 E.02113
;WIDTH:0.502268
G1 X147.252 Y150 E.02007
G1 X147.307 Y149.454 E.02096
;WIDTH:0.501942
G1 X147.471 Y148.925 E.02114
G1 X147.722 Y148.463 E.02007
G1 X148.057 Y148.057 E.02009
;WIDTH:0.502076
G1 X148.463 Y147.723 E.02007
G1 X148.972 Y147.452 E.02202
G1 X149.475 Y147.303 E.02003
G1 X150.007 Y147.252 E.0204
;WIDTH:0.501944
G1 X150.572 Y147.312 E.02169
G1 X151.074 Y147.471 E.0201
G1 X151.537 Y147.722 E.0201
;WIDTH:0.502256
G1 X151.943 Y148.057 E.0201
G1 X152.291 Y148.482 E.02098
;WIDTH:0.49778
G1 X152.538 Y148.946 E.01988
G1 X152.692 Y149.45 E.01993
;WIDTH:0.50226
G1 X152.748 Y150.001 E.02115
G1 X152.693 Y150.546 E.02092
;WIDTH:0.497778
G1 X152.54 Y151.05 E.01992
G1 X152.338 Y151.43 E.01628
G1 X152.097 Y151.75 F7800
;LAYER_CHANGE
;Z:1.2
;HEIGHT:0.2
G1 Z1.2 F7800
G92 E0
G1 X152.314 Y151.469
;WIDTH:0.501944
G1 F600
G1 X152.278 Y151.537 E.00294
G1 X151.943 Y151.943 E.02009
G1 X151.537 Y152.278 E.02009
G1 X151.065 Y152.533 E.02048
G1 X150.523 Y152.698 E.02162
G1 X150 Y152.748 E.02005
G1 X149.476 Y152.697 E.02009
G1 X148.962 Y152.544 E.02047
G1 X148.463 Y152.278 E.02158
G1 X148.057 Y151.943 E.02009
G1 X147.722 Y151.537 E.02009
G1 X147.47 Y151.075 E.02009
G1 X147.302 Y150.523 E.02202
G1 X147.252 Y150 E.02005
G1 X147.303 Y149.476 E.02009
G1 X147.456 Y148.962 E.02047
G1 X147.722 Y148.463 E.02158
G1 X148.057 Y148.057 E.02009
G1 X148.471 Y147.717 E.02045
G1 X148.971 Y147.452 E.0216
G1 X149.475 Y147.303 E.02006
G1 X150.009 Y147.252 E.02047
G1 X150.572 Y147.312 E.02161
G1 X151.074 Y147.471 E.0201
G1 X151.537 Y147.722 E.0201
;WIDTH:0.502266
G1 X151.943 Y148.057 E.0201
G1 X152.291 Y148.482 E.02098
;WIDTH:0.498344
G1 X152.538 Y148.946 E.01991
;WIDTH:0.501948
G1 X152.698 Y149.477 E.02117
;WIDTH:0.502258
G1 X152.748 Y150 E.02007
G1 X152.693 Y150.546 E.02096
;WIDTH:0.498346
G1 X152.54 Y151.05 E.01995
;WIDTH:0.501944
G1 X152.343 Y151.416 E.01586
G1 X152.107 Y151.739 F7800
;LAYER_CHANGE
;Z:1.4
;HEIGHT:0.2
G1 Z1.4 F7800
G92 E0
G1 X152.319 Y151.465
;WIDTH:0.497778
G1 F600
G1 X152.293 Y151.515 E.00213
;WIDTH:0.501882
G1 X151.942 Y151.944 E.02115
;WIDTH:0.502744
G1 X151.527 Y152.284 E.02051
;WIDTH:0.504564
G1 X151.028 Y152.547 E.02165
G1 X150.524 Y152.697 E.02019
;WIDTH:0.502266
G1 X150 Y152.748 E.02011
G1 X149.454 Y152.693 E.02096
;WIDTH:0.49778
G1 X148.95 Y152.54 E.01992
G1 X148.485 Y152.293 E.01991
;WIDTH:0.50193
G1 X148.056 Y151.942 E.02116
;WIDTH:0.50204
G1 X147.722 Y151.537 E.02004
G1 X147.47 Y151.074 E.02012
;WIDTH:0.500678
G1 X147.308 Y150.55 E.02088
;WIDTH:0.501942
G1 X147.252 Y149.999 E.02114
;WIDTH:0.502266
G1 X147.303 Y149.476 E.02007
G1 X147.461 Y148.95 E.02098
;WIDTH:0.497776
G1 X147.707 Y148.485 E.0199
;WIDTH:0.501936
G1 X148.058 Y148.056 E.02116
;WIDTH:0.502074
G1 X148.463 Y147.723 E.02002
G1 X148.972 Y147.452 E.02202
G1 X149.475 Y147.303 E.02003
G1 X150.011 Y147.252 E.02056
;WIDTH:0.501942
G1 X150.572 Y147.312 E.02153
G1 X151.074 Y147.471 E.0201
G1 X151.537 Y147.722 E.0201
;WIDTH:0.502266
G1 X151.943 Y148.057 E.0201
G1 X152.291 Y148.482 E.02098
;WIDTH:0.49777
G1 X152.538 Y148.946 E.01988
G1 X152.692 Y149.45 E.01993
;WIDTH:0.502262
G1 X152.748 Y150.001 E.02115
G1 X152.693 Y150.546 E.02092
;WIDTH:0.497778
G1 X152.54 Y151.05 E.01992
G1 X152.347 Y151.412 E.01552
G1 X152.11 Y151.734 F7800
;LAYER_CHANGE
;Z:1.6
;HEIGHT:0.2
G1 Z1.6 F7800
G92 E0
G1 X152.325 Y151.45
;WIDTH:0.501944
G1 F600
G1 X152.278 Y151.537 E.00377
G1 X151.943 Y151.943 E.02009
G1 X151.537 Y152.278 E.02009
;WIDTH:0.502258
G1 X151.074 Y152.529 E.02012
G1 X150.549 Y152.692 E.021
;WIDTH:0.501942
G1 X149.999 Y152.748 E.0211
G1 X149.476 Y152.697 E.02006
G1 X148.959 Y152.543 E.02059
G1 X148.463 Y152.278 E.02146
G1 X148.057 Y151.943 E.02009
G1 X147.722 Y151.537 E.02009
G1 X147.47 Y151.075 E.02009
G1 X147.302 Y150.523 E.02202
G1 X147.252 Y150 E.02005
G1 X147.302 Y149.477 E.02005
;WIDTH:0.504468
G1 X147.472 Y148.926 E.02213
G1 X147.722 Y148.463 E.02019
;WIDTH:0.502204
G1 X148.057 Y148.057 E.0201
G1 X148.482 Y147.709 E.02098
;WIDTH:0.501944
G1 X148.971 Y147.452 E.02108
G1 X149.475 Y147.303 E.02006
G1 X150.013 Y147.252 E.02063
G1 X150.572 Y147.312 E.02146
G1 X151.074 Y147.471 E.0201
G1 X151.537 Y147.722 E.0201
;WIDTH:0.50227
G1 X151.943 Y148.057 E.0201
G1 X152.291 Y148.482 E.02098
;WIDTH:0.497778
G1 X152.538 Y148.946 E.01988
;WIDTH:0.501936
G1 X152.698 Y149.477 E.02117
;WIDTH:0.502204
G1 X152.748 Y150 E.02006
G1 X152.694 Y150.546 E.02095
;WIDTH:0.501944
G1 X152.529 Y151.074 E.02111
G1 X152.354 Y151.397 E.01402
G1 X152.121 Y151.722 F7800
;LAYER_CHANGE
;Z:1.8
;HEIGHT:0.2
G1 Z1.8 F7800
G92 E0
G1 X152.334 Y151.436
;WIDTH:0.497776
G1 F600
G1 X152.293 Y151.515 E.00337
;WIDTH:0.501942
G1 X151.942 Y151.944 E.02116
G1 X151.537 Y152.278 E.02004
;WIDTH:0.504368
G1 X151.028 Y152.547 E.02209
G1 X150.524 Y152.697 E.02018
;WIDTH:0.501958
G1 X150 Y152.748 E.0201
G1 X149.476 Y152.697 E.0201
G1 X148.97 Y152.549 E.02012
;WIDTH:0.500456
G1 X148.485 Y152.292 E.02088
;WIDTH:0.501942
G1 X148.056 Y151.942 E.02113
G1 X147.722 Y151.537 E.02004
;WIDTH:0.50437
G1 X147.453 Y151.028 E.02209
G1 X147.303 Y150.524 E.02018
;WIDTH:0.501954
G1 X147.252 Y150 E.02009
G1 X147.303 Y149.476 E.02009
G1 X147.458 Y148.957 E.02067
G1 X147.722 Y148.463 E.02138
G1 X148.057 Y148.057 E.02009
;WIDTH:0.50333
G1 X148.476 Y147.714 E.02073
G1 X148.971 Y147.452 E.02144
;WIDTH:0.501984
G1 X149.475 Y147.303 E.02006
G1 X150.015 Y147.252 E.0207
G1 X150.572 Y147.312 E.02138
G1 X151.074 Y147.471 E.0201
G1 X151.537 Y147.722 E.0201
;WIDTH:0.502254
G1 X151.943 Y148.057 E.0201
G1 X152.291 Y148.482 E.02098
;WIDTH:0.49777
G1 X152.538 Y148.946 E.01988
;WIDTH:0.501936
G1 X152.698 Y149.477 E.02117
;WIDTH:0.502272
G1 X152.748 Y150 E.02007
G1 X152.693 Y150.546 E.02096
;WIDTH:0.497776
G1 X152.54 Y151.05 E.01992
G1 X152.363 Y151.383 E.01426
G1 X152.13 Y151.708 F7800
;LAYER_CHANGE
;Z:2
;HEIGHT:0.2
G1 Z2 F7800
G92 E0
G1 X152.34 Y151.421
;WIDTH:0.501932
G1 F600
G1 X152.277 Y151.537 E.00504
G1 X151.944 Y151.942 E.02001
;WIDTH:0.50525
G1 X151.495 Y152.304 E.02217
;WIDTH:0.506028
G1 X151.029 Y152.546 E.02022
G1 X150.524 Y152.697 E.0203
;WIDTH:0.501956
G1 X150 Y152.748 E.0201
;WIDTH:0.502138
G1 X149.476 Y152.697 E.0201
G1 X148.97 Y152.549 E.02013
;WIDTH:0.500318
G1 X148.485 Y152.292 E.02088
;WIDTH:0.50194
G1 X148.056 Y151.942 E.02113
;WIDTH:0.50208
G1 X147.723 Y151.537 E.02002
G1 X147.452 Y151.028 E.02202
;WIDTH:0.501958
G1 X147.303 Y150.524 E.02006
G1 X147.252 Y150 E.0201
G1 X147.302 Y149.477 E.02005
;WIDTH:0.504246
G1 X147.472 Y148.926 E.02212
G1 X147.722 Y148.463 E.02018
;WIDTH:0.502276
G1 X148.057 Y148.057 E.0201
G1 X148.482 Y147.71 E.02096
;WIDTH:0.501944
G1 X148.972 Y147.452 E.02114
;WIDTH:0.502076
G1 X149.475 Y147.303 E.02003
G1 X150.017 Y147.252 E.02078
;WIDTH:0.501932
G1 X150.572 Y147.312 E.02131
G1 X151.074 Y147.471 E.0201
G1 X151.537 Y147.722 E.0201
;WIDTH:0.502262
G1 X151.943 Y148.057 E.0201
G1 X152.29 Y148.482 E.02096
;WIDTH:0.501942
G1 X152.548 Y148.972 E.02114
G1 X152.697 Y149.476 E.02006
;WIDTH:0.502268
G1 X152.748 Y150 E.02011
G1 X152.693 Y150.546 E.02096
;WIDTH:0.497764
G1 X152.539 Y151.05 E.01993
;WIDTH:0.501932
G1 X152.368 Y151.368 E.01378
G1 X152.14 Y151.697 F7800
;LAYER_CHANGE
;Z:2.2
;HEIGHT:0.2
G1 Z2.2 F7800
G92 E0
G1 X152.35 Y151.406
;WIDTH:0.497774
G1 F600
G1 X152.293 Y151.515 E.00465
;WIDTH:0.501938
G1 X151.942 Y151.944 E.02116
G1 X151.537 Y152.278 E.02004
;WIDTH:0.502074
G1 X151.075 Y152.529 E.02007
G1 X150.523 Y152.698 E.02204
;WIDTH:0.501952
G1 X150 Y152.748 E.02005
G1 X149.476 Y152.697 E.02009
;WIDTH:0.502256
G1 X148.971 Y152.548 E.02011
G1 X148.485 Y152.292 E.02098
;WIDTH:0.501946
G1 X148.056 Y151.942 E.02113
;WIDTH:0.502164
G1 X147.722 Y151.537 E.02005
G1 X147.47 Y151.074 E.02013
;WIDTH:0.500124
G1 X147.307 Y150.55 E.02086
;WIDTH:0.501948
G1 X147.252 Y149.999 E.02114
;WIDTH:0.502262
G1 X147.303 Y149.476 E.02007
G1 X147.461 Y148.95 E.02098
;WIDTH:0.49777
G1 X147.707 Y148.485 E.0199
;WIDTH:0.501856
G1 X148.057 Y148.057 E.0211
;WIDTH:0.503628
G1 X148.479 Y147.712 E.02088
G1 X148.971 Y147.452 E.02132
;WIDTH:0.502074
G1 X149.475 Y147.303 E.02007
G1 X150.019 Y147.252 E.02086
;WIDTH:0.501942
G1 X150.572 Y147.312 E.02123
G1 X151.074 Y147.471 E.0201
G1 X151.537 Y147.722 E.0201
;WIDTH:0.502254
G1 X151.943 Y148.057 E.0201
G1 X152.29 Y148.482 E.02096
;WIDTH:0.499258
G1 X152.539 Y148.946 E.01998
;WIDTH:0.501944
G1 X152.698 Y149.476 E.02112
;WIDTH:0.501952
G1 X152.748 Y150 E.02009
;WIDTH:0.502256
G1 X152.697 Y150.524 E.02011
G1 X152.539 Y151.05 E.02098
;WIDTH:0.497774
G1 X152.378 Y151.353 E.01298
